X:1
T:James Gibb editions
T:Dixit Dominus - Grandi
T:#
%%score [ 1 2 3 4 ]
L:1/8
Q:1/4=200
M:6/2
K:C
V:1 treble nm="Soprano" snm="S"
V:2 treble nm="Alto" snm="A"
V:3 treble-8 nm="Tenor" snm="T"
V:4 bass nm="Bass" snm="B"
V:1
"^Alessandro Grandi\n(1586-1630)""^Dixit Dominus""^Psalm 109 (Vulgate)" B8 A4 G6 A2 B4 | %1
w: Di- xit Do- mi- nus|
 G6 G2 G4 ^F8 F4 | ^F4 G4 A4 (B6 A2 G4) | (A2 E2) ^F8 G4 B4 B4 | A6 A2 A2 A2 B8 E4 | %5
w: Do- mi- no me- o:|se- de a dex\- * *|tris * me- is do- nec|po- nam i- ni- mi- cos|
 A8 A4 z4 z4 z4 | A4 A4 A4 (B6 c2 A4 | G4) G4 ^F8 F8 | ^G12 z4 z4 A4 | %9
w: tu- os|sca- bel- lum pe\- * *|* dum tu- o-|rum. Vir-|
 A6 A2 A2 A2 B4 B2 A2 G2 ^F2 | E6 ^F2 G4 G4 (G4 F4) | G4 B4 B4 c4 (c2 B2) (c2 A2) | %12
w: gam vir- tu- tis tu- ae e- mit- tet|Do- mi- nus ex Si\- *|on: do- mi- na- re * in *|
 B6 B2 B4 z4 z4 z4 | G4 G4 G4 A8 G4 | A4 G8 G12 | z8 z8 z4 G4 | B4 B2 B2 B2 B2 A8 A4 | %17
w: me- di- o|i- ni- mi- co- rum|tu- o- rum.|in|di- e vir- tu- tis tu- ae:|
 z4 z4 z4 G4 A4 B4 | A6 A2 A4 z4 z4 z4 | z4 z4 z4 z4 z4 A4 | (^F6 G2) A4 G6 G2 F4 | %21
w: an- te lu-|ci- fe- rum.|Ju-|ra- * vit Do- mi- nus|
 E6 D2 E2 F2 G8 G4 | z8 z8 z4 c4 | B4 (B2 A2 B2 G2) (A6 G2 A2 F2 | G8) G4 G8 B4 | A8 G4 z4 z4 z4 | %26
w: et non poe- ni- te- bit.|tu|es sa\- * * * cer\- * * *|* dos in ae-|ter- num.|
 G6 G2 G4 G4 G4 A4 | B4 B4 B4 (c6 B2 c2 A2 | B4) B4 B4 G12 | G12 z4 z4 z4 | z4 z4 B4 A6 c2 A2 B2 | %31
w: Do- mi- nus a dex- tris|tu- is: con- fre\- * * *|* git in di-|e,|in di- e i- rae|
 c4 G8 G6 B2 A4 | A4 G8 G4 c4 c4 | B4 B2 B2 B2 B2 c6 c2 c2 B2 | A4 A4 B4 ^G4 G4 z4 | %35
w: su- ae, i- rae su-|ae re- ges. Ju- di-|ca- bit in na- ti- o- ni- bus, im-|ple- bit ru- i- nas:|
 z4 z4 z4 A6 A2 A2 A2 | B6 B2 B2 B2 G4 G4 G4- | G4 (G4 ^F4) G4 B4 G4 | d4 d2 A2 d2 c2 B4 B4 B4 | %39
w: con- quas- sa- bit|ca- pi- ta in ter- ra mul\-|* to\- * rum. De tor-|ren- te in vi- a bi- bet: pro-|
 A6 A2 A4 A4 (A2 G2 A2 ^F2) | B8 B4 A8 A4 | A6 A2 B4 B4 A8 | A12 || G6 G2 G4 | G4 G4 ^F4 G6 G2 G4 | %45
w: pte- re- a e- xal\- * * *|ta- bit ca- put,|e- xal- ta- bit ca-|put.|Glo- ri- a|Pa- tri et Fi- li- o|
 z4 G4 G4 A6 A2 A2 A2 | B4 c4 c4 (c8 B4) | c12- z4 z8 | z16 x8 | d4 c4 B4 A6 B2 c2 d2 | %50
w: et Spi- ri- tu- i, Spi-|ri- tu- i San\- *|cto.||et nunc et sem- per, et in|
 e8 d2 c2 B6 B2 B4 | B4 A8 A4 d4 d4 | (B2 A2 B2 G2 A2 B2 c4) G8 | z4 d4 d4 (d2 c2 d2 c2 B2 d2 | %54
w: sae- cu- la sae- cu- lo-|rum, A- men, sae- cu-|lo\- * * * * * * rum,|sae- cu- lo\- * * * * *|
[Q:1/4=199] G2[Q:1/4=197] ^F2[Q:1/4=195] G2[Q:1/4=193] A2[Q:1/4=192] B2[Q:1/4=190] c2[Q:1/4=186] A8)[Q:1/4=181] B4- | %55
w: * * * * * * * rum.|
[Q:1/4=177] B4[Q:1/4=173] A8[Q:1/4=170] B12 |] %56
w: * A- men.|
V:2
 G8 ^F4 E6 F2 G4 | E6 E2 D4 D8 D4 | z16 x8 | z16 x8 | z4 z4 z4 G8 G4 | ^F6 F2 F2 F2 E8 E4 | %6
w: Di- xit Do- mi- nus|Do- mi- no me- o:|||do- nec|po- nam i- ni- mi- cos|
 ^F4 F4 F4 G8 F4 | E4 E4 E8 (E4 ^D4) | E12 E4 E2 E2 E2 E2 | ^F8 F4 z4 z4 z4 | z16 x8 | %11
w: tu- os sca- bel- lum|pe- dum tu- o\- *|rum. Vir- gam vir- tu- tis|tu- ae:||
 D8 D4 E4 (E2 D2) (E2 ^F2) | G6 D2 D4 z4 z4 z4 | E4 E4 E4 (C6 D2 E2 C2 | F4) E4 D4 E4 E4 E4 | %15
w: do- mi- na- re * in *|me- di- o|i- ni- mi- co\- * * *|* rum tu- o- rum. Te-|
 D8 D4 E6 E2 E2 E2 | D4 D2 C2 D2 E2 ^F4 F4 F2 F2 | G6 A2 G2 F2 E4 ^F4 G4 | ^F6 F2 F4 G4 G4 F4 | %19
w: cum prin- ci- pi- um in|di- e vir- tu- tis tu- ae in splen-|do- ri- bus san- cto- rum: ex|u- te- ro, an- te lu-|
 E6 E2 D4 E6 E2 E4 | D8 z4 z4 z4 z4 | z4 z4 z4 C6 C2 C2 C2 | C6 C2 D4 E12 | %23
w: ci- fe- rum, ge- nu- i|te.|et non poe- ni-|te- bit e- um:|
 z4 z4 G4 F4 (F2 E2 F2 D2) | E6 E2 E2 E2 D4 D4 G4 | E4 (E2 D2 E2 D2) C6 C2 D4 | E4 D6 D2 E12 | %27
w: tu es sa\- * * *|cer- dos in ae- ter- num se-|cun- dum * * * or- di- nem|Mel- chi- se- dech.|
 z16 x8 | z4 z4 D4 (E4 D2 C2 D2 B,2 | E4 D4 G4 G12 | G8 G4 E6 G2 F2 F2 | G6 F2 (E4 D6 G2 E4 | %32
w: |con- fre\- * * * *|* git, con- fre-|gît in di- e i- rae|su- ae re\- * * *|
 F2 E2 D8) E12 | z16 x8 | z4 z4 z4 E6 E2 E2 E2 | E8 E4 ^F8 F4 | G4 G4 G4 E4 E4 D4- | D4 D8 D8 z4 | %38
w: * * * ges.||con- quas- sa- bit|ca- pi- ta in|ter- ra, in ter- ra mul\-|* to- rum.|
 z4 A4 ^F4 G4 G2 D2 G2 F2 | E8 E4 z4 z4 z4 | z4 z4 G4 E4 E2 ^C2 D2 E2 | ^F8 E8 E8 | ^F12 || z4 z8 | %44
w: De tor- ren- te in vi- a|bi- bet:`|pro- pte- re- a e- xal-|ta- bit ca-|put.||
 z4 z4 z4 D8 D4 | E6 F2 E2 D2 C6) C2 D2 E2 | F4 E4 D4 (E4 D8) | C4 E4 E4 D6 (C2 B,4) | %48
w: Et Spi-|ri\- * * * * tu- i, Spi-|ri- tu- i San\- *|cto. Si- cut e- rat *|
 (C2 B,2 C2 D2) (E2 F2) G6 G2 G4 | z16 x8 | G8 G4 ^F6 F2 G4- | G4 E4 E4 ^F8 F4 | %52
w: in * * * prin\- * ci- pi- o,||et in sae- cu- la|* sae- cu- lo- rum,|
 z4 G4 G4 (E2 D2 E2 C2 D2 E2 | ^F8) F4 z4 G4 G4 | (E2 D2 E2 ^F2 G2 A2 F8) G4- | G4 (G4 ^F4) G12 |] %56
w: sae- cu- lo\- * * * * *|* rum, sae- cu-|lo\- * * * * * * rum.|* A\- * men.|
V:3
 d8 d4 B6 c2 d4 | c6 c2 B4 A8 A4 | z16 x8 | z4 z4 z4 z4 d4 d4 | d6 d2 d2 d2 d8 ^c4 | %5
w: Di- xit Do- mi- nus|Do- mi- no me- o:||do- nec|po- nam i- ni- mi- cos|
 d8 d4 ^c4 c4 c4 | d12 d12 | z16 x8 | B4 B4 B4 ^c8 c4 | d4 d4 d4 d8 d4 | c6 B2 B4 A4 A8 | %11
w: tu- os sca- bel- lum|pe- dum.||Vir- gam vir- tu- tis|tu- ae e- mit- tet|Do- mi- nus ex Si-|
 B12 z4 z4 z4 | G4 G6 G2 (B6 c2 d2 B2 | c6 d2 B2 c2 A4) A4 c4- | c4 c4 B4 c8 c4 | %15
w: on:|i- ni- mi- co\- * * *|* * * * * rum tu\-|* o\- * rum. Te-|
 B8 B4 c6 c2 c2 c2 | B4 B2 A2 B2 c2 d4 d4 d2 d2 | B6 c2 d2 d2 c4 c4 d4 | d6 d2 d4 d4 e4 d4 | %19
w: cum prin- ci- pi- um in|di- e vir- tu- tis tu- ae in splen-|do- ri- bus san- cto- rum: ex|u- te- ro, an- te lu-|
 ^c6 c2 d4 d6 d2 c4 | d8 z4 z4 z4 z4 | z4 z4 z4 G6 G2 G2 G2 | A6 A2 B4 c8 c4 | G8 G4 d4 d4 z4 | %24
w: ci- fe- rum, ge- nu- i|te.|et non poe- ni-|te- bit e- um: tu|es sa- cer- dos|
 z4 G4 c4 B4 B4 d4 | c4 (c2 B2 c2 B2) A6 A2 B4 | c4 c6 B2 c4 c6 c2 | G8 G4 A4 (A2 G2 A2 ^F2) | %28
w: in ae- ter- num se-|cun- dum * * * or- di- nem|Mel- chi- se- dech. Do- mi-|nus a dex- tris * * *|
 G4 G4 B4 (c4 B2 A2 B2 G2 | c4 B4 d4 (e4 d2 c2 d2 B2 | e4) d4 d4 c6 e2 c2 d2 | e6 d2 c4 B8) c4- | %32
w: tu- is: con- fre\- * * * *|* git, con- fre\- * * * *|* git in di- e i- rae|su\- * * * ae|
 c4 (c4 B4) c12 | z4 z4 z4 z4 z4 c4 | c4 c4 d4 B8 B4 | ^c6 c2 c2 c2 d6 d2 d2 d2 | %36
w: * re\- * ges.|im-|ple- bit ru- i- nas:|con- quas- sa- bit ca- pi- ta in|
 d4 d4 d4 c4 c4 B4- | B4 A8 B12 | z4 z4 z4 z4 z4 e4 | ^c4 c2 B2 c2 A2 d8 d4 | d8 d4 ^c8 c4 | %41
w: ter- ra, in ter- ra mul\-|* to- rum.|pro-|pte- re- a e- xal- ta- bit|ca- put, e- xal-|
 d8 d4 (d8 ^c4) | d12 || B6 B2 B4 | A4 A4 A4 B6 B2 B4 | c6 (d2 c2 B2) A6 A2 A4 | z16 x8 | %47
w: ta- bit ca\- *|put.|Glo- ri- a|Pa- tri et Fi- li- o|et Spi\- * * ri- tu- i.||
 z4 c4 c4 B6 (A2 G4) | A8 A4 B6 A2 G4 | (F6 G2 A2 B2) c8 (B2 A2) | G6 A2 B2 c2 d6 d2 d4- | %51
w: Si- cut e- rat *|in prin- ci- pi- o,|et * * * nunc et *|sem- per, et in sae- cu- la|
 d4 d4 ^c4 d8 d4 | z4 z4 z4 z4 c4 c4 | (A2 G2 A2 ^F2 G2 A2 B8) B4 | z4 e4 e4 d8 d4- | d4 d8 d12 |] %56
w: * sae- cu- lo- rum,|sae- cu-|lo\- * * * * * * rum,|sae- cu- lo- rum.|* A- men.|
V:4
 G,8 D,4 E,6 E,2 B,,4 | C,6 C,2 G,,4 D,8 D,4 | D,4 E,4 ^F,4 (G,6 F,2 E,4) | C,4 D,8 G,4 G,4 G,4 | %4
w: Di- xit Do- mi- nus|Do- mi- no me- o:|se- de a dex\- * *|tris me- is do- nec|
 ^F,6 F,2 F,2 F,2 E,8 E,4 | D,8 D,4 z4 z4 z4 | D,4 D,4 D,4 G,4 G,4 D,4 | E,4 E,4 A,8 B,8 | %8
w: po- nam i- ni- mi- cos|tu- os|sca- bel- lum pe- dum tu-|o- rum, tu- o-|
 E,12- A,4 A,4 A,4 | D,8 D,4 G,4 G,2 G,2 G,2 G,2 | C,6 D,2 E,4 C,4 D,8 | G,12- z4 z4 z4 | %12
w: rum. Vir- gam vir-|tu- tis tu- ae e- mit- tet|Do- mi- nus ex Si-|on:|
 z4 z4 z4 G,4 G,4 G,4 | (E,6 F,2 G,2 E,2 F,4) F,4 (E,4 | D,4) G,8 C,12- | z8 z8 z4 C,4 | %16
w: i- ni mi-|co\- * * * * rum tu\-|* o- rum.|in|
 G,4 G,2 G,2 G,2 G,2 D,4 D,4 D,2 D,2 | E,6 E,2 B,,2 B,,2 C,4 A,,4 G,,4 | D,6 D,2 D,4 B,,4 C,4 D,4 | %19
w: di- e vir- tu- tis tu- ae in splen-|do- ri- bus san- cto- rum: ex|u- te- ro, an- te lu-|
 A,,6 A,,2 B,,4 A,,6 A,,2 A,,4 | D,8 D,4 B,,6 (C,2 D,4) | C,6 C,2 C,4 E,6 E,2 E,2 E,2 | %22
w: ci- fe- rum, ge- nu- i|te. Ju- ra- vit *|Do- mi- nus et non poe- ni-|
 F,6 E,2 D,4 C,12- | z4 z4 z4 z4 z4 D,4 | C,6 D,2 E,2 F,2 G,4 G,4 G,4 | A,8 E,4 F,6 E,2 D,4 | %26
w: te- bit e- um:|sa-|cer- dos in ae- ter- num se-|cun- dum or- di- nem|
 C,4 G,6 G,2 C,12 | z16 x8 | z16 x8 | z4 z4 G,4 (C4 B,2 A,2 B,2 G,2 | C4) G,4 G,4 A,6 E,2 F,2 D,2 | %31
w: Mel- chi- se- dech.|||con- fre\- * * * *|* git in di- e i- rae|
 (C,6 D,2 E,2 F,2 G,8) A,4 | (F,4 G,8) C,4 C,4 C,4 | G,4 G,2 G,2 G,2 G,2 A,6 A,2 A,2 A,2 | %34
w: su\- * * * * ae|re\- * ges. Ju- di-|ca- bit in na- ti- o- ni- bus, im-|
 F,4 F,4 D,4 E,8 E,4 | A,6 A,2 A,2 A,2 D,6 D,2 D,2 D,2 | G,4 G,4 B,,4 C,4 C,4 G,4- | %37
w: ple- bit ru- i- nas:|con- quas- sa- bit ca- pi- ta in|ter- ra, in ter- ra mul\-|
 G,4 D,8 G,8 z4 | z4 ^F,4 D,4 G,8 G,4 | z4 z4 A,4 ^F,4 F,2 E,2 F,2 D,2 | %40
w: * to rum.|De tor- ren- te:|pro- pte- re- a e- xal-|
 G,4 G,4 G,4 A,4 A,2 G,2 ^F,2 E,2 | D,8 G,8 A,8 | D,12 || G,6 G,2 G,4 | C,4 C,4 D,4 G,6 G,2 G,4 | %45
w: ta- bit, pro- pte- re- a e- xal-|ta- bit ca-|put.|Glo- ri- a|Pa- tri et Fi- li- o|
 E,8 E,4 (F,6 G,2 F,2 E,2 | D,4) C,4 F,4 G,12 | C,12 z4 z4 z4 | z4 z4 z4 G,4 F,4 E,4 | %49
w: et Spi- ri\- * * *|* tu- i San-|cto.|et nunc et|
 D,6 E,2 F,2 G,2 A,8 G,2 F,2 | (E,6 F,2 G,2 A,2 B,6) A,2 G,4 | G,4 A,8 D,12 | z16 x8 | %53
w: sem- per, et in sae- cu- la|sae\- * * * * cu- lo-|rum, A- men,||
 z4 D,4 D,4 (B,,2 A,,2 B,,2 C,2 D,2 B,,2 | C,8) C,4 D,8 G,4- | G,4 D,8 G,12 |] %56
w: sae- cu- lo\- * * * * *|* rum. A- men,|* A- men.|

